symbols/web/flip_camera_ios/materialsymbolsoutlined/flip_camera_ios_wght500grad200_48px.svg

<svg xmlns="http://www.w3.org/2000/svg" height="48" width="48"><path d="m32.95 21.15-5 4.95 1.8 1.75 2-2q-.35 3.6-2.5 5.875T24 34q-.85 0-1.475-.125-.625-.125-1.175-.375l-1.9 1.8q1.05.7 2.15.975 1.1.275 2.4.275 4.25 0 7.125-2.975t3.125-7.625l1.9 1.9 1.8-1.75Zm-17.8 10.3 5-4.95-1.8-1.75-2 2q.35-3.65 2.5-5.9Q21 18.6 24.1 18.6q.85 0 1.475.125.625.125 1.175.375l1.9-1.8q-1.05-.65-2.15-.95-1.1-.3-2.4-.3-4.25 0-7.125 2.975T13.85 26.65L12 24.75l-1.85 1.75ZM7 42.85q-1.55 0-2.7-1.15-1.15-1.15-1.15-2.7V13.5q0-1.45 1.15-2.65T7 9.65h7.1L18.05 5h12l3.9 4.65H41q1.5 0 2.675 1.2 1.175 1.2 1.175 2.65V39q0 1.55-1.175 2.7Q42.5 42.85 41 42.85ZM41 39V13.5h-8.85l-3.9-4.65H19.8l-3.95 4.65H7V39ZM24 23.9Z"/></svg>

<svg xmlns="http://www.w3.org/2000/svg" height="48" width="48"><path d="M32.95 21.15 27.95 26.1 29.75 27.85 31.75 25.85Q31.4 29.45 29.25 31.725Q27.1 34 24 34Q23.15 34 22.525 33.875Q21.9 33.75 21.35 33.5L19.45 35.3Q20.5 36 21.6 36.275Q22.7 36.55 24 36.55Q28.25 36.55 31.125 33.575Q34 30.6 34.25 25.95L36.15 27.85L37.95 26.1ZM15.15 31.45 20.15 26.5 18.35 24.75 16.35 26.75Q16.7 23.1 18.85 20.85Q21 18.6 24.1 18.6Q24.95 18.6 25.575 18.725Q26.2 18.85 26.75 19.1L28.65 17.3Q27.6 16.65 26.5 16.35Q25.4 16.05 24.1 16.05Q19.85 16.05 16.975 19.025Q14.1 22 13.85 26.65L12 24.75L10.15 26.5ZM7 42.85Q5.45 42.85 4.3 41.7Q3.15 40.55 3.15 39V13.5Q3.15 12.05 4.3 10.85Q5.45 9.65 7 9.65H14.1L18.05 5H30.05L33.95 9.65H41Q42.5 9.65 43.675 10.85Q44.85 12.05 44.85 13.5V39Q44.85 40.55 43.675 41.7Q42.5 42.85 41 42.85ZM41 39Q41 39 41 39Q41 39 41 39V13.5Q41 13.5 41 13.5Q41 13.5 41 13.5H32.15L28.25 8.85H19.8L15.85 13.5H7Q7 13.5 7 13.5Q7 13.5 7 13.5V39Q7 39 7 39Q7 39 7 39ZM24 23.9Q24 23.9 24 23.9Q24 23.9 24 23.9Q24 23.9 24 23.9Q24 23.9 24 23.9Q24 23.9 24 23.9Q24 23.9 24 23.9Q24 23.9 24 23.9Q24 23.9 24 23.9Z"/></svg>
